X: 1
T: James Gray's Compliments to Ms Petrov
C: James Gray
R: air, march
B: Alex & James Gray "Tweeddale Collection" v.4 p.50 #2,5
N: Tune for "Hana" by Alex Gray
Z: 2017 John Chambers <jc:trillian.mit.edu>
M: C
L: 1/8
K: D
E2 |\
"D"F2EF "/f#"D2dc | "G"B4 "/f#"A2BA | "Em"G2FG "/G"EFGB | "A7"A3G F3E |
"D"F2EF "/f#"DEFA | "G"GABc "Bm"d2fe | "Bm"d3c "/f#"BcdF | "A"A4 A3 ||
A |\
"G"BcdE "D"F2dc | "G"B3A "D"F2dc | "G"BcdE "D/f#"FGAB | "Em"cdef "A"g2ag |
"Bm"f2ef "/f#"dcBA | "G"B4 "D"A2Bc | "G"d3c "Bm"BcdE | "A"F3E "D"D2 |]
